X:4
T:Surprize, The
M: C|
L:1/8
B:Thompson's Compleat Collection of 200 Favourite Country Dances, vol. 3 (London, 1773)
Z:Transcribed and edited by Flynn Titford-Mock, 2007
Z:abc's:AK/Fiddler's Companion
K:A
A2e2"tr"c3B | (A/B/c) BA GF E2 | A2e2"tr"c3B | (A/B/c) EG A4 :|
|: (c/B/A) AA (c/B/A) AA | (A/B/c) BA B2E2 | E2a2 edcB | A2a2 edcB | (A/B/c) EG A4 :|

